Obsidian-SemiLight/actions/16s/view-task.svg

<svg viewBox="0 0 16 16" xmlns="http://www.w3.org/2000/svg"><path d="m2 2v12h7 4 1v-5-7h-2v2h-2v-2h-4v2h-2v-2zm1 3h10v4 4h-4-6zm7.335938 1.5-3.148438 3.609375-1.5253906-1.5527344-.6621094.6757813 2.2265625 2.2675781 3.7734375-4.3222656z" fill="#4d4d4d"/></svg>

<svg xmlns="http://www.w3.org/2000/svg" viewBox="0 0 16 16">
  <defs id="defs3051">
    <style type="text/css" id="current-color-scheme">
      .ColorScheme-Text {
        color:#4d4d4d;
      }
      </style>
  </defs>
 <path style="fill:currentColor;fill-opacity:1;stroke:none" 
       d="M 2 2 L 2 14 L 9 14 L 13 14 L 14 14 L 14 9 L 14 2 L 12 2 L 12 4 L 10 4 L 10 2 L 6 2 L 6 4 L 4 4 L 4 2 L 2 2 z M 3 5 L 13 5 L 13 9 L 13 13 L 9 13 L 3 13 L 3 5 z M 10.335938 6.5 L 7.1875 10.109375 L 5.6621094 8.5566406 L 5 9.2324219 L 7.2265625 11.5 L 11 7.1777344 L 10.335938 6.5 z "
     class="ColorScheme-Text"
     />
</svg>
